Cawnonical Mono-Glyph Icon Suite/packaged/Cawnonical Mono-Glyph Icon Suite Accented/actions/glyphs/colors-chromagreen.svg

<svg height="48" viewBox="0 -960 960 960" width="48" xmlns="http://www.w3.org/2000/svg">
  <defs>
    <style type="text/css" id="current-color-scheme">.ColorScheme-Highlight { color:#000000; }</style>
  </defs><path class="ColorScheme-Highlight" fill="currentColor" d="m480-55c-98.373 0-180.467-33.747-246.28-101.24-65.813-67.5-98.72-151.42-98.72-251.76 0-36 7.167-72.833 21.5-110.5s34.667-76 61-115 57.833-78.5 94.5-118.5 77-80 121-120c7.333-6 14.873-10.333 22.62-13 7.74-2.667 15.907-4 24.5-4 8.587 0 16.713 1.333 24.38 4s15.167 7 22.5 13c44 40 84.333 80 121 120s68.167 79.5 94.5 118.5 46.833 77.333 61.5 115 22 74.5 22 110.5c0 100.34-33.073 184.26-99.22 251.76-66.147 67.493-148.407 101.24-246.78 101.24zm.14-94c71.907 0 131.693-24.697 179.36-74.09s71.5-111.03 71.5-184.91c0-49.333-21.333-106-64-170s-105-133.667-187-209c-82 75.333-144.333 145-187 209s-64 120.667-64 170c0 73.88 23.88 135.517 71.64 184.91s107.593 74.09 179.5 74.09z"/><path d="m300.645-223.2c-47.76-49.42-71.641-111.02-71.641-184.81 0-49.42 21.342-105.99 63.999-170 42.68-64 104.999-133.78 186.995-208.99 81.999 75.21 144.337 144.99 186.998 208.99 42.679 64.01 63.999 120.58 63.999 170 0 73.79-23.82 135.39-71.498 184.81-47.659 49.38-107.439 74.2-179.357 74.2-71.899 0-131.739-24.82-179.495-74.2zm180.354 11.17c12.68 0 22.841-2.77 30.501-7.98 7.679-5.4 11.5-12.42 11.5-21 0-9.41-3.66-16.99-11.001-22.61-7.319-5.59-18.001-8.4-32.001-8.4-31.319 0-58.157-8.58-80.496-25.61-22.321-16.98-37.161-43.79-44.498-80.38-1.32-6.79-4.822-12.79-10.503-18-5.657-5.4-12.5-7.99-20.498-7.99-10.539 0-18.338 3.38-23.4 10.39-5.061 7.01-6.921 14.62-5.601 22.61 10.003 56.58 33.722 97.18 71.179 122 37.441 24.6 75.719 36.97 114.818 36.97z" style="fill: rgb(55, 200, 90);"/></svg>

<?xml version="1.0" encoding="utf-8"?>
<svg xmlns="http://www.w3.org/2000/svg" height="48" viewBox="0 -960 960 960" width="48">
  <defs>
    <style type="text/css" id="current-color-scheme">.ColorScheme-Highlight { color:#000000; }</style>
  </defs>
  <path class="ColorScheme-Highlight" fill="currentColor" d="M 480 -55 C 381.627 -55 299.533 -88.747 233.72 -156.24 C 167.907 -223.74 135 -307.66 135 -408 C 135 -444 142.167 -480.833 156.5 -518.5 C 170.833 -556.167 191.167 -594.5 217.5 -633.5 C 243.833 -672.5 275.333 -712 312 -752 C 348.667 -792 389 -832 433 -872 C 440.333 -878 447.873 -882.333 455.62 -885 C 463.36 -887.667 471.527 -889 480.12 -889 C 488.707 -889 496.833 -887.667 504.5 -885 C 512.167 -882.333 519.667 -878 527 -872 C 571 -832 611.333 -792 648 -752 C 684.667 -712 716.167 -672.5 742.5 -633.5 C 768.833 -594.5 789.333 -556.167 804 -518.5 C 818.667 -480.833 826 -444 826 -408 C 826 -307.66 792.927 -223.74 726.78 -156.24 C 660.633 -88.747 578.373 -55 480 -55 Z M 480.14 -149 C 552.047 -149 611.833 -173.697 659.5 -223.09 C 707.167 -272.483 731 -334.12 731 -408 C 731 -457.333 709.667 -514 667 -578 C 624.333 -642 562 -711.667 480 -787 C 398 -711.667 335.667 -642 293 -578 C 250.333 -514 229 -457.333 229 -408 C 229 -334.12 252.88 -272.483 300.64 -223.09 C 348.4 -173.697 408.233 -149 480.14 -149 Z"/>
  <path fill="rgb(55, 200, 90)" d="M 300.645 -223.2 C 252.885 -272.62 229.004 -334.22 229.004 -408.01 C 229.004 -457.43 250.346 -514 293.003 -578.01 C 335.683 -642.01 398.002 -711.79 479.998 -787 C 561.997 -711.79 624.335 -642.01 666.996 -578.01 C 709.675 -514 730.995 -457.43 730.995 -408.01 C 730.995 -334.22 707.175 -272.62 659.497 -223.2 C 611.838 -173.82 552.058 -149 480.14 -149 C 408.241 -149 348.401 -173.82 300.645 -223.2 Z M 480.999 -212.03 C 493.679 -212.03 503.84 -214.8 511.5 -220.01 C 519.179 -225.41 523 -232.43 523 -241.01 C 523 -250.42 519.34 -258 511.999 -263.62 C 504.68 -269.21 493.998 -272.02 479.998 -272.02 C 448.679 -272.02 421.841 -280.6 399.502 -297.63 C 377.181 -314.61 362.341 -341.42 355.004 -378.01 C 353.684 -384.8 350.182 -390.8 344.501 -396.01 C 338.844 -401.41 332.001 -404 324.003 -404 C 313.464 -404 305.665 -400.62 300.603 -393.61 C 295.542 -386.6 293.682 -378.99 295.002 -371 C 305.005 -314.42 328.724 -273.82 366.181 -249 C 403.622 -224.4 441.9 -212.03 480.999 -212.03 Z"/>
</svg>
